X:1032
M:C
L:1/8
Q:1/2=100
K:D
f/g/|af`df  a>baf |af`df ge ef/g/|af`df  a>baf |Ad`de fdd
f/g/|af`df  ab`af |af`df geef    |dA`Bd  Ad`AF |GE`AG FDD|]

